outputs/icons/navigation/more_horizontal_round.svg

<svg xmlns="http://www.w3.org/2000/svg" width="1200" height="1200" fill="none"><g clip-path="url(#a)"><path fill="#000" d="M300 500c-55 0-100 45-100 100s45 100 100 100 100-45 100-100-45-100-100-100m600 0c-55 0-100 45-100 100s45 100 100 100 100-45 100-100-45-100-100-100m-300 0c-55 0-100 45-100 100s45 100 100 100 100-45 100-100-45-100-100-100"/></g><defs><clipPath id="a"><path fill="#fff" d="M0 0h1200v1200H0z"/></clipPath></defs></svg>

<svg width="1200" height="1200" viewBox="0 0 1200 1200" fill="none" xmlns="http://www.w3.org/2000/svg"><g clip-path="url(#clip0_225_2873)"><path d="M300 500C245 500 200 545 200 600C200 655 245 700 300 700C355 700 400 655 400 600C400 545 355 500 300 500ZM900 500C845 500 800 545 800 600C800 655 845 700 900 700C955 700 1000 655 1000 600C1000 545 955 500 900 500ZM600 500C545 500 500 545 500 600C500 655 545 700 600 700C655 700 700 655 700 600C700 545 655 500 600 500Z" fill="black"/></g><defs><clipPath id="clip0_225_2873"><path width="24" fill="white" d="M0 0H1200V1200H0V0z"/></clipPath></defs></svg>
